;FLAVOR:Marlin
;TIME:7442
;Filament used: 1.57565m
;Layer height: 0.1
;MINX:15.691
;MINY:17.646
;MINZ:0.3
;MAXX:100.02
;MAXY:74.593
;MAXZ:45
;TARGET_MACHINE.NAME:Unknown
;Generated with Cura_SteamEngine 5.7.1
M104 S200
M105
M109 S200
M82 ;absolute extrusion mode
G28 ;Home
G1 Z15.0 F6000 ;Move the platform down 15mm
;Prime the extruder
G92 E0
G1 F200 E3
G92 E0
G92 E0
G92 E0
G1 F1500 E-6.5
;LAYER_COUNT:448
;LAYER:0
M107
G0 F3600 X100 Y60.224 Z0.3
;TYPE:SKIRT
G1 F1500 E0
G1 F1800 X99.818 Y61.026 E0.01547
G1 X98.821 Y62.843 E0.05446
G1 X97.495 Y64.409 E0.09305
G1 X96.287 Y65.254 E0.12079
G1 X81.537 Y73.01 E0.43426
G1 X80.294 Y73.454 E0.45909
G1 X78.235 Y73.716 E0.49813
G1 X75.743 Y73.385 E0.54542
G1 X73.191 Y72.133 E0.59889
G1 X71.491 Y70.508 E0.64313
G1 X70.487 Y68.965 E0.67776
G1 X56.056 Y41.59 E1.25986
G1 X31.27 Y71.958 E1.99722
G1 X29.587 Y73.353 E2.03834
G1 X27.741 Y74.138 E2.07607
G1 X26.156 Y74.592 E2.10709
G1 X23.652 Y74.593 E2.15419
G1 X21.025 Y73.788 E2.20587
G1 X19.873 Y73.038 E2.23173
G1 X18.264 Y71.724 E2.2708
G1 X17.122 Y70.292 E2.30526
G1 X16.081 Y68.165 E2.3498
G1 X15.691 Y65.703 E2.39669
G1 X15.928 Y63.599 E2.43652
G1 X16.596 Y61.624 E2.47574
G1 X17.601 Y60.106 E2.50998
G1 X49.462 Y21.088 E3.45754
G1 X50.452 Y20.092 E3.48396
G1 X52.264 Y18.87 E3.52507
G1 X54.202 Y18.078 E3.56445
G1 X56.389 Y17.646 E3.60639
G1 X58.604 Y17.651 E3.64805
G1 X60.788 Y18.203 E3.69043
G1 X62.503 Y18.868 E3.72503
G1 X64.282 Y20.102 E3.76575
G1 X65.828 Y21.645 E3.80684
G1 X66.926 Y23.385 E3.84554
G1 X80.635 Y49.382 E4.39839
G1 X80.991 Y48.566 E4.41513
G1 X82.485 Y46.846 E4.45799
G1 X83.512 Y45.926 E4.48393
G1 X86.26 Y44.49 E4.54225
G1 X88.957 Y44.132 E4.59343
G1 X91.046 Y44.406 E4.63306
G1 X93.177 Y45.192 E4.67578
G1 X95.38 Y46.827 E4.72739
G1 X96.612 Y48.641 E4.76864
G1 X99.665 Y54.52 E4.89325
G1 X100 Y55.478 E4.91234
G0 F3600 X99.776 Y56.05
G1 F1800 X100.02 Y58.329 E4.95545
G1 X99.441 Y60.882 E5.00469
G1 X98.49 Y62.615 E5.04188
G1 X97.223 Y64.111 E5.07876
G1 X96.058 Y64.926 E5.1055
G1 X81.403 Y72.633 E5.41697
G1 X80.201 Y73.062 E5.44097
G1 X78.237 Y73.312 E5.47821
G1 X75.858 Y72.996 E5.52336
G1 X73.422 Y71.801 E5.5744
G1 X71.803 Y70.253 E5.61653
G1 X70.841 Y68.778 E5.64966
G1 X56.128 Y40.869 E6.24312
G1 X30.984 Y71.676 E6.99114
G1 X29.377 Y73.007 E7.03039
G1 X27.631 Y73.753 E7.0661
G1 X26.098 Y74.192 E7.0961
G1 X23.71 Y74.193 E7.14102
G1 X21.196 Y73.423 E7.19047
G1 X20.126 Y72.728 E7.21448
G1 X18.552 Y71.442 E7.25271
G1 X17.46 Y70.074 E7.28563
G1 X16.467 Y68.044 E7.32814
G1 X16.095 Y65.696 E7.37286
G1 X16.321 Y63.684 E7.41095
G1 X16.958 Y61.803 E7.4483
G1 X17.935 Y60.327 E7.4816
G1 X49.746 Y21.37 E8.42768
G1 X50.707 Y20.403 E8.45332
G1 X52.457 Y19.223 E8.49302
G1 X54.318 Y18.462 E8.53084
G1 X56.425 Y18.046 E8.57124
G1 X58.554 Y18.051 E8.61129
G1 X60.643 Y18.576 E8.65181
G1 X62.314 Y19.224 E8.68552
G1 X64.025 Y20.411 E8.72469
G1 X65.514 Y21.897 E8.76426
G1 X66.572 Y23.572 E8.80153
G1 X80.669 Y50.305 E9.37002
G1 X81.334 Y48.781 E9.4013
G1 X82.752 Y47.144 E9.44204
G1 X83.741 Y46.258 E9.46702
G1 X86.382 Y44.878 E9.52307
G1 X88.958 Y44.536 E9.57195
G1 X90.952 Y44.797 E9.60978
G1 X92.986 Y45.548 E9.65057
G1 X95.086 Y47.106 E9.69975
G1 X96.281 Y48.866 E9.73977
G1 X99.287 Y54.652 E9.86242
G1 X99.776 Y56.05 E9.89028
G0 F3600 X99.383 Y56.139
G1 F1800 X99.615 Y58.306 E9.93127
G1 X99.063 Y60.739 E9.9782
G1 X98.157 Y62.39 E10.01363
G1 X96.953 Y63.812 E10.04868
G1 X95.829 Y64.598 E10.07448
G1 X81.269 Y72.256 E10.38393
G1 X80.108 Y72.67 E10.40712
G1 X78.239 Y72.908 E10.44256
G1 X75.973 Y72.607 E10.48556
G1 X73.653 Y71.469 E10.53416
G1 X72.114 Y69.998 E10.57421
G1 X71.195 Y68.591 E10.60582
G1 X56.2 Y40.148 E11.21065
G1 X30.698 Y71.394 E11.96932
G1 X29.168 Y72.661 E12.00668
G1 X27.521 Y73.368 E12.0404
G1 X26.04 Y73.792 E12.06938
G1 X23.768 Y73.793 E12.11211
G1 X21.368 Y73.058 E12.15933
G1 X20.379 Y72.418 E12.18149
G1 X18.838 Y71.159 E12.21892
G1 X17.8 Y69.858 E12.25023
G1 X16.853 Y67.923 E12.29075
G1 X16.498 Y65.685 E12.33337
G1 X16.713 Y63.774 E12.36955
G1 X17.32 Y61.982 E12.40514
G1 X18.269 Y60.548 E12.43748
G1 X50.03 Y21.652 E13.38208
G1 X50.962 Y20.714 E13.40695
G1 X52.65 Y19.576 E13.44524
G1 X54.434 Y18.846 E13.4815
G1 X56.461 Y18.446 E13.52037
G1 X58.504 Y18.451 E13.5588
G1 X60.498 Y18.949 E13.59746
G1 X62.125 Y19.58 E13.63028
G1 X63.768 Y20.72 E13.6679
G1 X65.2 Y22.149 E13.70595
G1 X66.218 Y23.759 E13.74179
G1 X80.752 Y51.321 E14.32791
G1 X80.819 Y50.963 E14.33476
G1 X81.677 Y48.996 E14.37513
G1 X83.019 Y47.442 E14.41375
G1 X83.97 Y46.59 E14.43777
G1 X86.504 Y45.266 E14.49155
G1 X88.959 Y44.94 E14.53813
G1 X90.859 Y45.189 E14.57418
G1 X92.794 Y45.903 E14.61298
G1 X94.792 Y47.385 E14.65977
G1 X95.95 Y49.091 E14.69856
G1 X98.909 Y54.784 E14.81925
G1 X99.383 Y56.139 E14.84625
G0 F3600 X98.99 Y56.228
G1 F1800 X99.21 Y58.283 E14.88513
G1 X98.685 Y60.596 E14.92974
G1 X97.826 Y62.162 E14.96334
G1 X96.681 Y63.514 E14.99667
G1 X95.6 Y64.27 E15.02148
G1 X81.135 Y71.879 E15.32892
G1 X80.015 Y72.278 E15.35129
G1 X78.241 Y72.504 E15.38493
G1 X76.088 Y72.218 E15.42578
G1 X73.884 Y71.137 E15.47196
G1 X72.425 Y69.743 E15.50992
G1 X71.549 Y68.404 E15.54001
G1 X56.272 Y39.427 E16.1562
G1 X30.412 Y71.112 E16.92552
G1 X28.957 Y72.317 E16.96106
G1 X27.411 Y72.983 E16.99272
G1 X25.982 Y73.392 E17.02068
G1 X23.826 Y73.393 E17.06124
G1 X21.54 Y72.693 E17.10621
G1 X20.632 Y72.108 E17.12653
G1 X19.124 Y70.876 E17.16316
G1 X18.14 Y69.642 E17.19285
G1 X17.239 Y67.802 E17.23139
G1 X16.902 Y65.678 E17.27184
G1 X17.106 Y63.859 E17.30627
G1 X17.682 Y62.159 E17.34003
G1 X18.579 Y60.801 E17.37065
G1 X50.34 Y21.905 E18.31524
G1 X51.214 Y21.027 E18.33854
G1 X52.843 Y19.929 E18.3755
G1 X54.549 Y19.231 E18.41017
G1 X56.498 Y18.846 E18.44754
G1 X58.456 Y18.851 E18.48437
G1 X60.353 Y19.322 E18.52114
G1 X61.936 Y19.936 E18.55308
G1 X63.511 Y21.029 E18.58914
G1 X64.886 Y22.401 E18.62568
G1 X65.864 Y23.946 E18.66007
G1 X80.99 Y52.631 E19.27008
G1 X80.998 Y52.364 E19.2751
G1 X81.186 Y51.123 E19.29871
G1 X82.019 Y49.212 E19.33793
G1 X83.322 Y47.704 E19.37541
G1 X84.199 Y46.922 E19.39752
G1 X86.626 Y45.654 E19.44903
G1 X88.96 Y45.344 E19.49331
G1 X90.766 Y45.581 E19.52758
G1 X92.602 Y46.258 E19.56439
G1 X94.498 Y47.664 E19.60879
G1 X95.595 Y49.276 E19.64547
G1 X98.531 Y54.916 E19.76507
G1 X98.99 Y56.228 E19.79122
G0 F3600 X98.597 Y56.317
G1 F1800 X98.805 Y58.261 E19.82799
G1 X98.308 Y60.452 E19.87026
G1 X97.493 Y61.937 E19.90212
G1 X96.411 Y63.215 E19.93362
G1 X95.371 Y63.942 E19.95749
G1 X81.001 Y71.502 E20.26292
G1 X79.922 Y71.886 E20.28446
G1 X78.243 Y72.1 E20.3163
G1 X76.203 Y71.829 E20.35501
G1 X74.115 Y70.805 E20.39876
G1 X72.736 Y69.488 E20.43463
G1 X71.903 Y68.217 E20.46321
G1 X56.344 Y38.706 E21.09076
G1 X30.126 Y70.83 E21.87074
G1 X28.746 Y71.972 E21.90443
G1 X27.301 Y72.598 E21.93405
G1 X25.924 Y72.992 E21.96099
G1 X23.884 Y72.993 E21.99937
G1 X21.713 Y72.328 E22.04208
G1 X20.885 Y71.798 E22.06057
G1 X19.412 Y70.594 E22.09636
G1 X18.478 Y69.424 E22.12452
G1 X17.625 Y67.681 E22.16102
G1 X17.306 Y65.67 E22.19932
G1 X17.499 Y63.945 E22.23197
G1 X18.044 Y62.336 E22.26393
G1 X18.889 Y61.054 E22.29281
G1 X50.624 Y22.187 E23.23667
G1 X51.469 Y21.338 E23.2592
G1 X53.036 Y20.282 E23.29475
G1 X54.664 Y19.616 E23.32783
G1 X56.535 Y19.246 E23.36371
G1 X58.408 Y19.251 E23.39894
G1 X60.208 Y19.695 E23.43382
G1 X61.747 Y20.292 E23.46487
G1 X63.254 Y21.338 E23.49938
G1 X64.572 Y22.653 E23.5344
G1 X65.51 Y24.133 E23.56736
G1 X81.36 Y54.191 E24.20656
G1 X81.394 Y52.424 E24.2398
G1 X81.574 Y51.234 E24.26244
G1 X82.362 Y49.426 E24.29954
G1 X83.588 Y48.003 E24.33487
G1 X84.431 Y47.252 E24.35611
G1 X86.746 Y46.042 E24.40525
G1 X88.961 Y45.748 E24.44728
G1 X90.672 Y45.972 E24.47974
G1 X92.411 Y46.614 E24.51461
G1 X94.206 Y47.945 E24.55664
G1 X95.24 Y49.461 E24.59116
G1 X98.153 Y55.048 E24.70968
G1 X98.597 Y56.317 E24.73497
G0 F3600 X98.204 Y56.404
G1 F1800 X98.4 Y58.238 E24.76966
G1 X97.93 Y60.309 E24.80961
G1 X97.162 Y61.709 E24.83965
G1 X96.139 Y62.917 E24.86943
G1 X95.142 Y63.614 E24.89231
G1 X80.867 Y71.125 E25.19573
G1 X79.829 Y71.494 E25.21645
G1 X78.245 Y71.696 E25.24649
G1 X76.318 Y71.44 E25.28306
G1 X74.346 Y70.473 E25.32437
G1 X73.044 Y69.23 E25.35823
G1 X72.257 Y68.03 E25.38523
G1 X56.416 Y37.985 E26.02413
G1 X29.84 Y70.548 E26.81476
G1 X28.536 Y71.627 E26.8466
G1 X27.191 Y72.213 E26.8742
G1 X25.866 Y72.592 E26.90012
G1 X23.942 Y72.593 E26.93631
G1 X21.883 Y71.962 E26.97682
G1 X21.138 Y71.488 E26.99343
G1 X19.698 Y70.311 E27.02842
G1 X18.818 Y69.208 E27.05496
G1 X18.011 Y67.56 E27.08948
G1 X17.71 Y65.663 E27.12561
G1 X17.893 Y64.03 E27.15652
G1 X18.406 Y62.513 E27.18664
G1 X19.199 Y61.307 E27.21379
G1 X50.908 Y22.469 E28.15692
G1 X51.726 Y21.647 E28.17873
G1 X53.227 Y20.636 E28.21277
G1 X54.779 Y20.001 E28.24432
G1 X56.572 Y19.646 E28.2787
G1 X58.357 Y19.651 E28.31228
G1 X60.063 Y20.068 E28.34531
G1 X61.56 Y20.649 E28.37552
G1 X62.971 Y21.621 E28.40775
G1 X64.258 Y22.905 E28.44194
G1 X65.156 Y24.32 E28.47347
G1 X81.326 Y54.986 E29.12559
G1 X81.9 Y54.683 E29.1378
G1 X81.761 Y54.147 E29.14822
G1 X81.79 Y52.484 E29.17951
G1 X81.962 Y51.345 E29.20117
G1 X82.705 Y49.64 E29.23616
G1 X83.854 Y48.302 E29.26933
G1 X84.663 Y47.582 E29.28971
G1 X86.866 Y46.43 E29.33647
G1 X88.962 Y46.152 E29.37624
G1 X90.579 Y46.364 E29.40692
G1 X92.219 Y46.969 E29.4398
G1 X93.913 Y48.225 E29.47947
G1 X94.885 Y49.646 E29.51185
G1 X97.798 Y55.233 E29.63038
G1 X98.204 Y56.404 E29.65369
G0 F3600 X97.811 Y56.49
G1 F1800 X97.995 Y58.216 E29.68634
G1 X97.553 Y60.165 E29.72393
G1 X96.831 Y61.481 E29.75217
G1 X95.867 Y62.619 E29.78022
G1 X94.913 Y63.286 E29.80212
G1 X80.733 Y70.748 E30.10353
G1 X79.736 Y71.102 E30.12343
G1 X78.247 Y71.292 E30.15167
G1 X76.433 Y71.051 E30.18609
G1 X74.577 Y70.141 E30.22497
G1 X73.352 Y68.972 E30.25682
G1 X72.611 Y67.843 E30.28223
G1 X56.488 Y37.264 E30.93249
G1 X29.554 Y70.266 E31.73378
G1 X28.323 Y71.284 E31.76383
G1 X27.081 Y71.828 E31.78933
G1 X25.808 Y72.192 E31.81424
G1 X24 Y72.193 E31.84825
G1 X22.056 Y71.597 E31.8865
G1 X21.353 Y71.15 E31.90217
G1 X19.986 Y70.03 E31.93541
G1 X19.156 Y68.99 E31.96044
G1 X18.397 Y67.439 E31.99292
G1 X18.114 Y65.655 E32.0269
G1 X18.286 Y64.116 E32.05603
G1 X18.768 Y62.691 E32.08432
G1 X19.509 Y61.56 E32.10976
G1 X51.192 Y22.751 E33.05216
G1 X51.983 Y21.956 E33.07325
G1 X53.418 Y20.99 E33.10579
G1 X54.894 Y20.386 E33.13579
G1 X56.609 Y20.046 E33.16868
G1 X58.307 Y20.051 E33.20062
G1 X59.918 Y20.441 E33.2318
G1 X61.373 Y21.006 E33.26116
G1 X62.715 Y21.93 E33.29181
G1 X63.941 Y23.153 E33.32438
G1 X64.802 Y24.507 E33.35456
G1 X81.158 Y55.526 E34.0142
G1 X82.377 Y54.884 E34.04011
G1 X82.161 Y54.153 E34.05445
G1 X82.186 Y52.544 E34.08472
G1 X82.35 Y51.456 E34.10542
G1 X83.048 Y49.856 E34.13825
G1 X84.158 Y48.563 E34.17031
G1 X84.895 Y47.912 E34.1888
G1 X86.986 Y46.818 E34.2332
G1 X88.963 Y46.556 E34.27071
G1 X90.486 Y46.756 E34.2996
G1 X92.027 Y47.324 E34.3305
G1 X93.62 Y48.505 E34.3678
G1 X94.53 Y49.831 E34.39805
G1 X97.443 Y55.418 E34.51657
G1 X97.811 Y56.49 E34.53789
G0 F3600 X97.418 Y56.576
G1 F1800 X97.59 Y58.193 E34.56848
G1 X97.175 Y60.022 E34.60376
G1 X96.5 Y61.253 E34.63017
G1 X95.595 Y62.321 E34.6565
G1 X94.684 Y62.958 E34.67741
G1 X80.599 Y70.371 E34.97681
G1 X79.643 Y70.71 E34.99589
G1 X78.249 Y70.888 E35.02233
G1 X76.548 Y70.662 E35.0546
G1 X74.808 Y69.809 E35.09106
G1 X73.662 Y68.715 E35.12086
G1 X72.965 Y67.656 E35.14471
G1 X56.56 Y36.543 E35.80633
G1 X29.268 Y69.984 E36.61827
G1 X28.112 Y70.939 E36.64648
G1 X26.971 Y71.443 E36.66994
G1 X25.75 Y71.792 E36.69383
G1 X24.058 Y71.793 E36.72566
G1 X22.229 Y71.232 E36.76165
G1 X21.568 Y70.812 E36.77638
G1 X20.274 Y69.749 E36.80788
G1 X19.494 Y68.772 E36.83139
G1 X18.783 Y67.318 E36.86184
G1 X18.518 Y65.648 E36.89365
G1 X18.68 Y64.201 E36.92104
G1 X19.13 Y62.868 E36.9475
G1 X19.819 Y61.813 E36.9712
G1 X51.476 Y23.033 E37.91287
G1 X52.24 Y22.265 E37.93325
G1 X53.607 Y21.345 E37.96424
G1 X55.011 Y20.77 E37.99278
G1 X56.646 Y20.446 E38.02413
G1 X58.259 Y20.451 E38.05447
G1 X59.773 Y20.814 E38.08376
G1 X61.183 Y21.362 E38.11222
G1 X62.488 Y22.26 E38.14201
G1 X63.627 Y23.404 E38.17238
G1 X64.448 Y24.694 E38.20114
G1 X80.991 Y56.067 E38.86831
G1 X82.854 Y55.085 E38.90792
G1 X82.562 Y54.097 E38.9273
G1 X82.582 Y52.604 E38.95539
G1 X82.738 Y51.567 E38.97511
G1 X83.391 Y50.07 E39.00583
G1 X84.423 Y48.863 E39.03571
G1 X85.126 Y48.242 E39.05335
G1 X87.106 Y47.206 E39.09539
G1 X88.964 Y46.96 E39.13064
G1 X90.392 Y47.147 E39.15773
G1 X91.836 Y47.68 E39.18669
G1 X93.328 Y48.786 E39.22162
G1 X94.175 Y50.016 E39.24971
G1 X97.088 Y55.603 E39.36823
G1 X97.418 Y56.576 E39.38756
G0 F3600 X97.025 Y56.663
G1 F1800 X97.185 Y58.17 E39.41607
G1 X96.797 Y59.879 E39.44903
G1 X96.169 Y61.025 E39.47361
G1 X95.323 Y62.023 E39.49823
G1 X94.455 Y62.63 E39.51815
G1 X80.413 Y70.017 E39.81661
G1 X79.554 Y70.318 E39.83373
G1 X78.251 Y70.484 E39.85844
G1 X76.663 Y70.273 E39.88857
G1 X75.039 Y69.477 E39.92259
G1 X73.972 Y68.458 E39.95034
G1 X73.319 Y67.469 E39.97264
G1 X56.632 Y35.822 E40.64562
G1 X28.982 Y69.702 E41.46822
G1 X27.9 Y70.596 E41.49462
G1 X26.861 Y71.058 E41.51601
G1 X25.692 Y71.392 E41.53888
G1 X24.116 Y71.393 E41.56853
G1 X22.398 Y70.866 E41.60233
G1 X21.822 Y70.503 E41.61514
G1 X20.56 Y69.467 E41.64585
G1 X19.834 Y68.556 E41.66776
G1 X19.169 Y67.197 E41.69622
G1 X18.922 Y65.641 E41.72586
G1 X19.074 Y64.286 E41.75151
G1 X19.493 Y63.043 E41.77618
G1 X20.129 Y62.066 E41.79811
G1 X51.76 Y23.315 E42.73904
G1 X52.497 Y22.574 E42.7587
G1 X53.796 Y21.7 E42.78815
G1 X55.128 Y21.154 E42.81523
G1 X56.683 Y20.846 E42.84505
G1 X58.211 Y20.851 E42.87379
G1 X59.68 Y21.203 E42.90221
G1 X60.991 Y21.716 E42.92869
G1 X62.261 Y22.59 E42.95769
G1 X63.313 Y23.654 E42.98583
G1 X64.094 Y24.881 E43.01319
G1 X80.824 Y56.608 E43.68789
G1 X83.331 Y55.286 E43.7412
G1 X82.963 Y54.041 E43.76562
G1 X82.978 Y52.663 E43.79154
G1 X83.126 Y51.679 E43.81026
G1 X83.734 Y50.284 E43.83888
G1 X84.688 Y49.163 E43.86657
G1 X85.357 Y48.572 E43.88337
G1 X87.226 Y47.594 E43.92304
G1 X88.964 Y47.364 E43.95602
G1 X90.299 Y47.539 E43.98135
G1 X91.644 Y48.035 E44.00832
G1 X93.035 Y49.066 E44.04088
G1 X93.82 Y50.201 E44.06684
G1 X96.709 Y55.732 E44.18422
G1 X97.025 Y56.663 E44.20272
G0 F3600 X96.632 Y56.75
G1 F1800 X96.78 Y58.147 E44.22914
G1 X96.419 Y59.736 E44.25979
G1 X95.838 Y60.797 E44.28255
G1 X95.051 Y61.725 E44.30544
G1 X94.226 Y62.302 E44.32437
G1 X80.281 Y69.639 E44.62078
G1 X79.461 Y69.926 E44.63712
G1 X78.253 Y70.08 E44.66003
G1 X76.778 Y69.884 E44.68802
G1 X75.27 Y69.145 E44.71961
G1 X74.281 Y68.2 E44.74534
G1 X73.673 Y67.282 E44.76605
G1 X56.704 Y35.101 E45.45039
G1 X28.699 Y69.417 E46.28357
G1 X27.686 Y70.253 E46.30827
G1 X26.751 Y70.673 E46.32755
G1 X25.634 Y70.992 E46.34941
G1 X24.174 Y70.993 E46.37687
G1 X22.567 Y70.5 E46.40849
G1 X22.076 Y70.194 E46.41937
G1 X20.849 Y69.186 E46.44924
G1 X20.172 Y68.338 E46.46965
G1 X19.555 Y67.076 E46.49608
G1 X19.325 Y65.63 E46.52362
G1 X19.466 Y64.375 E46.54738
G1 X19.856 Y63.219 E46.57032
G1 X20.439 Y62.319 E46.5905
G1 X52.044 Y23.597 E47.5307
G1 X52.754 Y22.883 E47.54964
G1 X53.985 Y22.055 E47.57754
G1 X55.245 Y21.538 E47.60316
G1 X56.72 Y21.246 E47.63145
G1 X58.164 Y21.251 E47.65861
G1 X59.534 Y21.575 E47.68509
G1 X60.799 Y22.07 E47.71064
G1 X62.004 Y22.899 E47.73816
G1 X63 Y23.907 E47.76481
G1 X63.74 Y25.068 E47.79071
G1 X80.656 Y57.148 E48.47291
G1 X83.846 Y55.467 E48.54074
G1 X83.734 Y55.237 E48.54555
G1 X83.364 Y53.984 E48.57012
G1 X83.374 Y52.722 E48.59386
G1 X83.514 Y51.791 E48.61157
G1 X84.079 Y50.496 E48.63815
